X: 21831
T: Kinrara
R: reel
M: 4/4
K: Fmajor
|:A|"F"~F2 (FC) (A,B,)(CF)|"Bb"D<D (F>G) "F"{F}A2 Ac|"F"(AF)(FC) (A,B,)(CA,)|"Gm"G,<G, "Am"A,C "Dm"{^C}D3:|
f|"F"(cA)(fA) (cA) (Aa)|"Bb"(fe) dc "F" A2 (Af)|"F"(cA)(fA) (cA) (Ac)|"Gm" G<G "Am"Ac "Dm" d2 df|
"F" cAfA cAAc|"Bb "defg "F"{b}a2 ge|"Dm" fd"Am"ec "Gm"BG"A"AF|"A"CF"C"A,C "Dm"D3||

